X:194
T:Catching Of Fleas
M:6/8
L:1/8
K:F
|: AGF c2f | edc gfe | fef gec | agf e2c | 
AGF c2f | edc gfe | fef gec |1 agf f2c :|2 agf f2a |:
gaf efd | ^cAd cAf | dBg ecg | agf e2 a | 
gaf efd | ^cAd cAf | dBg ecg |1 agf f2a :|2 agf f2c |]
